!!!OTL: SCHOENE MINKA
!!!ARE: Europa, Mitteleuropa, Deutschland; Rossiya (Melodie)
!!!SCT: B0721
!!!YEM: Copyright 1995, estate of Helmut Schaffrath.
**kern
*ICvox
*Ivox
*M4/4
*k[]
*a:
=1
{4.a
8g#
4.a
8g#
=2
4a
4ccn
4b
4a}
=3
{4.g#
8f#
4.g#
8f#
=4
4g#
4b
4a
4g#}
=5
{4.a
8g#
4.a
8g#
=6
4a
4ccn
4b
4a}
=7
{8g#
8b
8b
8ee
4.ee
8g#
=8
2a
2r}
=9
{4.ccn
8b
4.ccn
8b
=10
4ccn
4ee
4dd
4ccn}
=11
{4.b
8a
4.b
8a
=12
4b
4dd
4ccn
4b}
=13
{4.a
8g#
4.a
8g#
=14
4a
4ccn
4b
4a}
=15
{8g#
8b
8b
8ee
4.ee
8g#
=16
2a
2r}
==
!!!AGN: Liebes - Lied, Abschied
!!!ONB: ESAC (Essen Associative Code) Database: BOEHME
!!!AMT: simple quadruple
!!!AIN: vox
!!!EED: Helmut Schaffrath
!!!EEV: 1.0
*-
